X:23
T:Em Jig
R:jig
D:"Chasing the bear" by Jon Hicks
Z:Transcribed by Lionel Gueganton
L:1/8
M:6/8
K:Bb
 |: BGA B2c | [dG]gg gfe | _d=dd Bcd      | ccc AGF 
 |1 BGA B2c | [dG]gg gfe | ded cdc        | AGF G3 
:|2 BGA ABc | [dG]gg gfe | ded ccc        | AGF G2G,
 |abb agf   | d=ef dfg   | gbb a/4b/4a/gf | d=ef [g2g2]a 
 | abb agf  | d=ef def   | bag a/4b/4a/gf | d=ef [g2g2]a 
 | abb agf  | abb agf    | abb agf        | d=ef [g2g2]a 
 | abb agf  | d=ef dfg   | bag a/4b/4a/gf | d=ef [g3g3]

